X:1
T:The Testing Time
T:The Testing Time
T:George Crawford Hugg
T:Emma A. Tiffany, 1898
T:Public Domain Courtesy of the Cyber Hymnal™
T:Public Domain Courtesy of the Cyber Hymnal™
C:George Crawford Hugg
Z:Public Domain
Z:Courtesy of the Cyber Hymnal™
%%score ( 1 2 ) ( 3 4 )
L:1/8
Q:1/4=105
M:6/8
K:Ab
V:1 treble 
V:2 treble 
V:3 bass 
V:4 bass 
V:1
 [CE] | [CE]2 [CE] [EA]2 [Ec] | [EB]2 [DB] [CA]2 [Ec] | [Ae]2 [Ae] [Ae]2 [Af] | [Ae]2 [Ac] [GB]3 | %5
w: 1.~The|test- ing time is|ve- ry near, When|at Christ’s bar we|must ap- pear;|
w: 2.~Our|se- cret thoughts will|then be known, We|can- not then for|sin a- tone;|
w: 3.~We|then may call, but|all in vain, Too|late! our guilt will|still re- main;|
w: 4.~O|sin- ner, come, e’er|Heav- en’s door Is|closed, to o- pen|nev- er- more;|
w: 5.~Then|when the test- ing|time doth come You’ll|find in Heav’n sweet|rest and home;|
 [GB]2 [Ac] [Bd]3 | [Ec]2 [Ed] !fermata![Ee]2 [Ae] | [Ae]2 [Af] [Ae]2 [Ac] | %8
w: Must ap- pear,|must ap- pear, When|at Christ’s bar we|
w: Sin a- tone,|sin a- tone, We|can- not then for|
w: Still re- main,|still re- main, Too|late! our guilt will|
w: Nev- er- more,|nev- er- more, Is|closed, to o- pen|
w: Rest and home,|rest and home, You’ll|find in Heav’n sweet|
 [GB]2 [GB] !fermata!A2 ||[M:4/4]"^Refrain" [Fc][DB] | [CA]2 [CA][CA] [CA][Ec][DB][CA] | %11
w: must ap- pear.|||
w: sin a- tone.|||
w: still re- main.|Oh, my|soul, art thou rea- dy to ap-|
w: nev- er- more.|||
w: rest and home.|||
 [EB]6 [Ed][Ec] | [EB]2 [EB][EB] [EB][Ed][Ec][EB] | [Ec]6 [Ec][Ed] | %14
w: |||
w: |||
w: pear At the|bar, when the judg- ment day is|here? With no|
w: |||
w: |||
 [Ee][Ee][Ee][Ef] [Ee]2 [Ec][DB] | [CA][CA][EA][EB] !fermata![Ec]2 [CA][DF] | %16
w: ||
w: ||
w: coun- sel at thy side, When the|book is o- pened wide, Oh, my|
w: ||
w: ||
 [CE]2 [CE][CE] [CE][EA][Ac][GB] | !fermata![EA]6 |] %18
w: ||
w: ||
w: soul, art thou rea- dy to ap-|pear?|
w: ||
w: ||
V:2
 x | x6 | x6 | x6 | x6 | x6 | x6 | x6 | x3 A2 ||[M:4/4] x2 | x8 | x8 | x8 | x8 | x8 | x8 | x8 | %17
 x6 |] %18
V:3
 [A,,A,] | [A,,A,]2 [A,,A,] [C,A,]2 [A,,A,] | [E,G,]2 E, [A,,E,]2 A, | [A,C]2 [A,C] [A,C]2 [A,D] | %4
w: ~|~ ~ ~ ~|~ ~ ~ ~|~ ~ ~ ~|
 [A,C]2 [A,E] [E,E]3 | [E,E]2 [E,E] [E,E]3 | A,2 [A,B,] !fermata![A,C]2 [A,C] | %7
w: ~ ~ ~|~ ~ ~|~ ~ ~ ~|
 [A,C]2 [A,D] [A,C]2 [A,E] | [E,E]2 [E,D] [A,,C]2 ||[M:4/4] [A,,A,][A,,A,] | %10
w: ~ ~ ~ ~|~ ~ ~|~ ~|
 [A,,A,]2 [A,,A,][A,,A,] [A,,A,][A,,A,][A,,A,][A,,A,] | [E,G,]2 [E,G,][E,G,] [E,G,]2 [E,B,][E,A,] | %12
w: ~ ~ ~ ~ ~ ~ ~|to ap- pear, ~ ~ ~|
 [E,G,]2 [E,G,][E,G,] [E,G,][E,B,][E,A,][E,G,] | A,2 A,A, A,2 A,[A,B,] | %14
w: ~ ~ ~ ~ ~ ~ ~|sure- ly here? * * *|
 [A,C][A,C][A,C][A,D] [A,C]2 [A,,A,][A,,A,] | [A,,E,][A,,E,][C,E,][E,G,] A,2 [F,A,][D,A,] | %16
w: ||
 [E,A,]2 [E,A,][E,A,] [E,A,][E,C][E,E][E,D] | [A,,A,C]6 |] %18
w: ||
V:4
 x | x6 | x2 E, x A, x | x6 | x6 | x6 | A,2 x4 | x6 | x5 ||[M:4/4] x2 | x8 | x8 | x8 | %13
 A,2 A,A, A,2 A, x | x8 | x4 A,2 x2 | x8 | x6 |] %18

